X: 14361
T: Gallowhill
R: waltz
M: 3/4
K: Gmajor
A Bc|dG G2 FG|G2 GA Bd|GF G2 FG|EA D2 AG|
AB G2 FG|dG A2 BG/F/|ED D2 G>F|ED A4-|A3:|
A Bc|dG Ge- ec|A3 B/A/ G>F|ED D2 G>F|ED A2 Bc|
dG Ge- ec|d2 BA AG|Ec- cA- AG|A3 D Bc|
dG Ge- ec|A3 B/A/ G>F|ED D2 G>F|ED A2 AG|
AB G2 FG|dG A2 BG/F/|ED D2 G>F|ED A4-|A3||

